X:25
T:Auld Stewart's Back Again, The
R:Reel
B:The Athole Collection
M:C|
L:1/8
K:D
=c|BGAG F>GA=c|BGAF BEE=c|BGAG F>GAg|fdec dDD:|
|:g|f>gaf gabg|f>gaf beeg|1 f>gaf gabg|fdec dDD:|2 fgaf gabg|faef dDD||

